X:1
T:Title
L:1/8
Q:1/4=100
M:3/4
K:Db
V:1 treble nm="Grand Piano"
V:1
 B,C DE FA | G2 F4 | =AB cB Ac/c/ | B3 A/G/ F2 | B,C DE FA | =G2 A_G F2 | =AB cB Ac/c/ | A6 | %8
w: ????~???? * * * * *||||||||
 cB A/A/G FA | G4- G>C | CD/D/ EF AG | G2 F3- F/F/ | FG/G/ =AB dc |[M:5/8] c2 B cd |[M:1/8] z/ F/ | %15
w: |||||||
[M:4/4] Bc/B/ d4- d>F | Bc/B/ d4- d>F | Bc/c/ d>B- B/FA/ G>F | =AB c4- c>F | =AB/B/ c4- c>F | %20
w: |||||
[M:3/4] =AB cB Ac | B6 |] %22
w: ||

